!!!!SEGMENT: pl-wtm--r-1656_stefani-jozef--braciszka-milego-sen-rozweselmy.krn
!!!cenid: 18xx:2050
!!!COM: Stefani, Józef
!!!COM-rismID:
!!!CDT: 1800/04/16-1876/03/19
!!!CNT: Polish
!!!OTL: Braciszka miłego sen rozweselmy
!!!PDT:
!!!AGN: Secular
!!!SMS-siglum: PL-Wtm
!!!SMS-shelfmark: R 1656
!!!SMS-shelfwork: W
!!!SMS-variant:
!!!SMS-altvar:
!!!NIFC-rismSourceID: 1001114899
!!!NIFC-islandoraID:
!!!URL-pdf-islandora:
!!!URL-scan:
!!!ONB-nifc: UWAGA: No. 13, skan 0008-0009
!!!OMD: No 13. Allegro.
!!!AIN: 1 empty 2 forte
!!!key:
**kern	**kern	**dynam	**kern	**text	**dynam
*part3	*part2	*part2	*part1	*part1	*part1
*staff3	*staff2	*	*staff1	*staff1	*
*Iforte	*Iforte	*	*Iempty	*	*
*I"Fortepian	*I"Fortepian	*	*I"Dwuśpiew	*	*
*clefF4	*clefG2	*	*clefG2	*	*
*k[f#]	*k[f#]	*	*k[f#]	*	*
*G:	*G:	*	*G:	*	*
*M2/4	*M2/4	*	*M2/4	*	*
!	!	!LO:DY:rj	!LO:TX:a:i:t=Wiersz Mickiewicza	!	!LO:DY:a
8r	8d/	p	8d/	Bra-	p
=1	=1	=1	=1	=1	=1
!LO:TX:t=P:problem=mixed beam	!	!	!	!	!
(>16GG/LL	(16ddLL 16b/	.	4dd 4b\	-cisz-	.
16G\J)	16d/J)	.	.	.	.
8GG'/J	8ddJ 8b'/	.	.	.	.
(16CC/LL	(16ccLL 16a/	.	8cc 8a\	-ka	.
16C/)	16e/J)	.	.	.	.
16CC'/JJ	8ccJ 8a'/	.	8cc 8a\	mi-	.
16r	.	.	.	.	.
=2	=2	=2	=2	=2	=2
(16DD/LL	(16bLL 16g/	.	4b 4g/	-łe-	.
16D/J)	16d/J)	.	.	.	.
8DD'/J	8bJ 8g'/	.	.	.	.
(16DD#X/LL	(16aLL 16f#/	.	4a 4f#/	-go	.
16D#X/J)	16B/J)	.	.	.	.
8DD#'/J	8aJ 8f#'/	.	.	.	.
=3	=3	=3	=3	=3	=3
!LO:TX:t=P:problem=mixed beam	!	!	!	!	!
(>16EE/LL	(16gLL 16e/	.	4g 4e/	sen	.
16E\J)	16B/J)	.	.	.	.
8EE'>/J	8gJ 8e'/	.	.	.	.
!LO:TX:t=P:problem=mixed beam	!	!	!	!	!
(>16DD/LL	(16aLL 16f#/	.	8a 8f#/	roz-	.
16D\J)	16d/J)	.	.	.	.
8DD'>/J	8aJ 8f#'/	.	8a 8f#/	-we-	.
!!LO:LB:g=original
=4	=4	=4	=4	=4	=4
!LO:TX:t=P:problem=mixed beam	!	!	!	!	!
(>16GG/LL	(16bLL 16g/	.	4b 4g/	-sel-	.
16G\J)	16d/J)	.	.	.	.
8GG'/J	8bJ 8g'/	.	.	.	.
*rep	*rep	*	*	*	*
!LO:TX:t=P:problem=mixed beam	!	!	!	!	!
(>16GG/LL	(16bLL 16g/	.	8b 8g/	-my,	.
16G\J)	16d/J)	.	.	.	.
8GG'/J	8bJ 8g'/	.	8b 8g/	ſen-	.
*Xrep	*Xrep	*	*	*	*
=5	=5	=5	=5	=5	=5
!LO:TX:t=P:problem=mixed beam	!	!	!	!	!
(>16AA/LL	(16aLL 16f#/	.	4a 4f#/	-ne-	.
16A\J)	16d/J)	.	.	.	.
8AA'>/J	8aJ 8f#'/	.	.	.	.
!LO:TX:t=P:problem=mixed beam	!	!	!	!	!
(>16AA#X/LL	(16cc#XLL 16g/	.	8cc#X 8e/	-mu	.
16A#X\J)	16e/J)	.	.	.	.
8AA#'/J	8cc#J 8g'/	.	8cc# 8g/	pod	.
=6	=6	=6	=6	=6	=6
!LO:TX:t=P:problem=mixed beam	!	!	!	!	!
(16BB/LL	(16ddLL 16f#/	.	4dd 4f#/	gło-	.
16B\J)	16d/J)	.	.	.	.
8BB'/J	8ddJ 8f#'/	.	.	.	.
!LO:TX:t=P:problem=mixed beam	!	!	!	!	!
(>16GG/LL	(16bLL 16g/	.	4b 4g/	-wę	.
16G\J)	16d/J)	.	.	.	.
8GG'>/J	8bJ 8g'/	.	.	.	.
=7	=7	=7	=7	=7	=7
4A 4AA/	8aL 8f#/	.	8aL 8f#/	skrzy-	.
.	8f#J 8d/	.	8f#J 8d/	.	.
8AL 8AA/	8eL 8d/	.	8e 8d/	-dło	.
8AJ 8AA/	8aJ 8c#X/	.	8a 8c#X/	po-	.
!!LO:LB:g=original
=8	=8	=8	=8	=8	=8
(16D/LL	4.f# 4.d 4.A/	.	4f# 4d/	-ściel-	.
16AA/	.	.	.	.	.
16FF#/	.	.	.	.	.
16AA/JJ)	.	.	.	.	.
8DD/	.	.	8f# 8d/	-my,	.
8r	8r	.	8d/	o-	.
=9	=9	=9	=9	=9	=9
8D 8DD/	8r	.	(16ccLL 16a/	-cza-	.
.	.	.	16b 16g/	.	.
8r	8f#L 8d 8c/	.	16a 16f#/	.	.
.	.	.	16bJJ 16g/)	.	.
8D 8DD/	8f#J 8d 8c/	.	8cc 8a/	-mi	.
8r	8r	.	8d/	gwiaz-	.
=10	=10	=10	=10	=10	=10
8G 8GG\	8r	.	(16bLL 16g/	-da-	.
.	.	.	16a 16d/	.	.
8r	8gL 8d 8B/	.	16g 16B/	.	.
.	.	.	16aJJ 16d/)	.	.
8G 8GG\	8gJ 8d 8B/	.	8b 8g/	-mi	.
8G 8GG\	8b 8g/	.	8b 8g/	twarz	.
=11	=11	=11	=11	=11	=11
8A 8AA\	8aL 8f#/	.	4a 4f#/	mu	.
8r	8aJ 8f#/	.	.	.	.
8A 8AA\	8r	.	4cc#X 4e/	o-	.
8r	8cc#X 8g 8e/	.	.	.	.
!!LO:LB:g=original
=12	=12	=12	=12	=12	=12
(16DD/LL	4dd 4f# 4d/	.	4dd 4f#/	-świeć-	.
16FF#/	.	.	.	.	.
16AA/	.	.	.	.	.
16D/JJ)	.	.	.	.	.
8DD/	8d/	.	8d/	-my	.
*clefG2	*	*	*	*	*
(32e/LLL	(32ee\LLL	.	(32eeLLL 32e/	Spie-	.
32d/	32dd\	.	32dd 32d/	.	.
32c#X/	32cc#X\	.	32cc#X 32c#X/	.	.
32d/JJJ)	32dd\JJJ)	.	32ddJJJ 32d/)	.	.
*clefF4	*	*	*	*	*
=13	=13	=13	=13	=13	=13
!	!	!LO:DY:rj	!	!	!LO:DY:rj
4G 4GG/	4gg 4b 4g\	f	4gg 4b\	-wa-	f
8.GL 8.GG/	8.bL 8.g\	.	8.b 8.g/	-iąc	.
16CJk 16CC/	16eeJk 16cc\	.	16ee 16cc\	i	.
=14	=14	=14	=14	=14	=14
!LO:TX:t=P:problem=mixed beam	!	!	!	!	!
8DD/L	(16ddLL 16b\	.	(16ddLL 16b/	gra-	.
.	16cc 16a\	.	16cc 16a/	.	.
8D\J	16b 16g#X\	.	16b 16g#X/	.	.
.	16ccJJ 16a\)	.	16ccJJ 16a/)	.	.
8DD/	8a 8f#/	.	8a 8f#/	-iąc	.
!	!	!LO:DY:a:rj	!	!	!LO:DY:rj
8D 8DD/	8a 8f#/	p	8a 8f#/	la-	p
!!LO:PB:g=original
=15	=15	=15	=15	=15	=15
4G 4GG\	4b 4g/	.	4b 4g/	-taj-	.
4E 4EE/	4g 4e/	.	4g 4e/	-my	.
=16	=16	=16	=16	=16	=16
[4BB [4BBB/	(>4b 4d#X/	.	4b 4d#X/	wian-	.
8BB]L 8BBB/]	8f#L 8d#/)	.	8f# 8d#/	-kiem	.
8BBJ 8BBB/	8f#J 8d#/	.	8f# 8d#/	nad	.
=17	=17	=17	=17	=17	=17
4E 4EE/	4g 4e/	.	4g 4e/	czys-	.
4A 4F# 4D\	(4a 4f#t/	.	(>4a 4f#t/	-tym,	.
.	16qqg#XLL 16qqe#X/	.	16qqg#XLL 16qqe#X/	.	.
.	16qqaJJ 16qqf#/)	.	16qqaJJ 16qqf#/)	.	.
=18	=18	=18	=18	=18	=18
8.BL 8.G\	8.bL 8.g/	.	8.bL 8.g/	ci-	.
16cJk 16A\	16ccJk 16a/	.	16ccJk 16a/	.	.
4d 4B\	4dd 4b\	.	4dd 4b\	-chym	.
!!LO:LB:g=original
=19	=19	=19	=19	=19	=19
!	!LO:TX:b:i:t=rall&colon;	!	!LO:TX:a:i:t=rall&colon;	!	!
!LO:S:s=2:note:problem=note-level slur	!LO:S:s=2:note:problem=note-level slur	!	!LO:S:s=2:note:problem=note-level slur	!	!
(4e (>4c\	(4ee (>4cc\	.	(4ee (>4cc\	na-	.
8.dL) 8.B\)	8.ddL) 8.b\)	.	8.dd) 8.b\)	-szym	.
16c#XJk 16A#X\	16cc#XJk 16a#X\	.	16cc#X 16a#X\	Ko-	.
=20	=20	=20	=20	=20	=20
(4d 4B\	(4dd 4b\	.	4dd 4b\	-chan-	.
8B 8G\)	8b 8g/)	.	8b 8g/	-kiem,	.
8r;	8r;	.	8r;	.	.
=21||	=21||	=21||	=21||	=21||	=21||
*M3/8	*M3/8	*	*M3/8	*	*
!	!LO:TX:a:t=a tempo	!	!LO:TX:a:i:t=a tempo	!	!LO:DY:a
8D 8DD/	8r	f	16a 16f#/	Rą-	f
.	.	.	16b 16g/	-czę-	.
8r	8f#L 8d 8c 8A/	.	8cc 8a\	-ta	.
8r	8f#J 8d 8c 8A/	.	8dd 8f#\	li-	.
!!LO:LB:g=original
=22	=22	=22	=22	=22	=22
8G 8GG\	8r	.	8b 8g/	-lio-	.
8r	8gL 8d 8B/	.	4dd 4b\	-we	.
8r	8gJ 8d 8B/	.	.	.	.
=23	=23	=23	=23	=23	=23
8D 8DD/	8r	.	(16ccLL 16a\	za	.
.	.	.	32ddL 32b\	.	.
.	.	.	32ccJJJ 32a\)	.	.
8r	8f#L 8d 8c 8A/	.	8b 8g/	liś-	.
8r	8f#J 8d 8c 8A/	.	8a 8f#/	-cie	.
=24	=24	=24	=24	=24	=24
8G 8GG\	8r	.	8b 8g/	zpleć-	.
8r	8gL 8d 8B/	.	4g^>/	-my	.
8r	8gJ 8d 8B/	.	.	.	.
=25	=25	=25	=25	=25	=25
8D 8DD/	8r	.	16a 16f#/	za	.
.	.	.	16b 16g/	ró-	.
8r	8f#L 8d 8c 8A/	.	8cc 8a\	-że	.
8r	8f#J 8d 8c 8A/	.	8dd 8f#\	Kwi-	.
!!LO:LB:g=original
=26	=26	=26	=26	=26	=26
8G 8GG/	8r	.	8b 8g/	-tną-	.
4G 4GG/	4g 4d 4B/	.	4dd 4b\	-ce	.
=27	=27	=27	=27	=27	=27
!LO:TX:t=P:problem=mixed beam	!	!	!	!	!
8CL 8CC/	8eeL 8cc 8g/	.	8ee 8cc\	czo-	.
8cJ 8C\	8ccJ 8a 8e/	.	8cc 8a\	-ła	.
16r	16r	.	16r	.	.
16c 16C\	16ee 16cc\	.	16ee 16cc\	roz-	.
=28	=28	=28	=28	=28	=28
4d 4D\	4dd 4b\	.	(4dd 4b\	-nie-	.
8d 8A 8D\	8ff# 8dd 8cc 8a\	.	8ff# 8a\)	.	.
=29	=29	=29	=29	=29	=29
8d 8B 8G\	8gg 8dd 8b 8g\	.	8gg 8b\	-ćmy.	.
16r	16r	.	8r	.	.
16d\LL	16dd/LL	.	.	.	.
16.B\	16.b/	.	8r	.	.
!LO:TX:a:t=V&colon;S&colon;	!	!	!	!	!
32G\JJk	32g/JJk	.	.	.	.
!!LO:PB:g=original
=30	=30	=30	=30	=30	=30
!	!	!LO:DY:rj	!	!	!LO:DY:rj
8D\	8r	p	16a 16f#/	la	p
.	.	.	16cc 16a/	la	.
8r	8f#L 8d 8c 8A/	.	16ee 16cc\	la	.
.	.	.	16dd 16b\	la	.
8r	8f#J 8d 8c 8A/	.	8cc 8a\	la	.
=31	=31	=31	=31	=31	=31
!	!	!	!LO:N:vis=8.	!	!
8G 8GG\	8r	.	16.b 16.g/	la	.
*	*	*	*	*ij	*
.	.	.	32gg 32b\	la	.
8r	8gL 8d 8B/	.	8dd 8b\	la	.
8r	8gJ 8d 8B/	.	8b 8g/	la	.
*	*	*	*	*Xij	*
=32	=32	=32	=32	=32	=32
8D\	8r	.	16a 16f#/	la	.
*	*	*	*	*ij	*
.	.	.	16cc 16a/	la	.
8r	8f#L 8d 8c 8A/	.	16ee 16cc\	la	.
.	.	.	16dd 16b\	la	.
8r	8f#J 8d 8c 8A/	.	8cc 8a\	la	.
*	*	*	*	*Xij	*
!!LO:LB:g=original
=33	=33	=33	=33	=33	=33
8G 8GG\	8r	.	16.b 16.g/	la	.
*	*	*	*	*ij	*
.	.	.	32gg 32b\	la	.
8r	8gL 8d 8B/	.	4dd 4b\	la	.
*	*	*	*	*Xij	*
8r	8gJ 8d 8B/	.	.	.	.
=34	=34	=34	=34	=34	=34
!	!	!LO:DY:rj	!	!	!LO:DY:rj
8C 8CC/	16eeLL 16cc\	f	16ee 16cc\	la	f
*	*	*	*	*ij	*
.	16dd#X 16b\	.	16dd#X 16b\	la	.
8cL 8G 8E 8C\	16ee 16cc\	.	16ee 16cc\	la	.
.	16gg 16ee\	.	16gg 16ee\	la	.
8cJ 8G 8E 8C\	16ff# 16ddn\	.	16ff# 16ddn\	la	.
.	16eeJJ 16cc\	.	16ee 16cc\	la	.
*	*	*	*	*Xij	*
=35	=35	=35	=35	=35	=35
8G 8GG\	16ddLL 16b/	.	16dd 16b\	la	.
*	*	*	*	*ij	*
.	16ccJJ 16a/	.	16cc 16a\	la	.
8BL 8G 8D\	8bL 8g/	.	8b 8g/	la	.
8BJ 8G 8D\	8bJ 8g/	.	8b 8g/	la	.
*	*	*	*	*Xij	*
=36	=36	=36	=36	=36	=36
8D 8DD/	16aLL 16f#/	.	16a 16f#/	la	.
*	*	*	*	*ij	*
.	16g#XJJ 16e#X/	.	16g#X 16e#X/	la	.
8dL 8A 8F# 8D\	8aL 8f#/	.	8a 8f#/	la	.
8dJ 8A 8F# 8D\	8ddJ 8f#/	.	8dd 8f#/	la	.
*	*	*	*	*Xij	*
!!LO:LB:g=original
=37	=37	=37	=37	=37	=37
8d 8B 8G\	8g/	.	8g/	la	.
8G 8GG\	8gg 8dd 8b 8g\	.	8gg 8g\	la	.
8r	8r	p	8r	.	.
=38	=38	=38	=38	=38	=38
.	(8qee/	.	.	.	.
*^	*	*	*	*	*
4.D/	8D\L	16.dd\LL)	.	4.r	.	.
.	.	32cc#X|\JJk	.	.	.	.
.	8c 8A 8F#\	16dd|\LL	.	.	.	.
.	.	32r	.	.	.	.
.	.	(32eee\JJk	.	.	.	.
.	8cJ 8A 8F#\	8ddd\)	.	.	.	.
*v	*v	*	*	*	*	*
=39	=39	=39	=39	=39	=39
.	(8qee/	.	.	.	.
8GG/	16.dd\LL)	.	4.r	.	.
.	32cc#X|\JJk	.	.	.	.
8BL 8G 8D\	16dd|\LL	.	.	.	.
.	32r	.	.	.	.
.	(32eee\JJk	.	.	.	.
8BJ 8G 8D\	8ddd\)	.	.	.	.
.	.	f	.	.	.
=40	=40	=40	=40	=40	=40
8AL 8E 8C\	16.ff#\LL	.	4.r	.	.
.	32ee\K	.	.	.	.
8c 8A 8F# 8D\	16.dd\	.	.	.	.
.	32ccc\K	.	.	.	.
8cJ 8A 8F# 8D\	16.bb\	.	.	.	.
.	32aa\JJk	.	.	.	.
=41	=41	=41	=41	=41	=41
8B 8G\	8gg\	.	4.r	.	.
8G 8GG/	8gg 8dd 8b\	.	.	.	.
8r	8r	.	.	.	.
==	==	==	==	==	==
*-	*-	*-	*-	*-	*-
!!!system-decoration: s1{(s2,s3)}
!!!RDF**kern: > = above
!!!RDF**kern: < = below
!!!RDF**kern: | = vertical stroke
!!!ENC: Marta Lawrence
!!!END: 2021-05-09
!!!ENC: Tomasz Grochalski
!!!END: 2021-04-25
